X: 832
T: Our Own Little Isle
B:O'Neill's 832
Z:Transcribed by Dan G. Petersen, dangp@post6.tele.dk
M:6/8
L:1/8
K:G
G3 AGA|(B<e)e edc|BAB GBA|G>EE E2D|
~G3 AGA|(B<e)e edc|BAB GBA|AGG G2:|
g3 (g2g/f/)|edc BAG|g3 (g2g/f/)|efg a2g|
bag agf|edc BAG|BAB G2(B/A/)|G>EE E2D:|


